!!!OTL: Wiedersehen an der Bahre.
!!!OTL-incipit: Es wollt' ein Juengling in die Fremde ziehn,
!!!ARE: Europa, Mitteleuropa, Deutschland (BRD), Rheinprovinz
!!!YOR: 3, S. 85
!!    ????
!!!SCT: Q0056J
!!!TXL: @@DE
!!!YEM: Copyright 1995, estate of Helmut Schaffrath.
**kern	**text
*ICvox	*
*M3/4	*
*k[b-]	*
*F:	*
{8c	Es
8c	wollt'
8a	ein
=1	=1
4a	Jüngling
8g	in
8f	die
8b-	Frem-
8a	-de
=2	=2
4g	ʒiehn,
8r}	.
{8g	er
8g	ließ
8cc	ſein
=3	=3
4cc	Lieb-
4b-	-chen
8g	wei-
8g	-nend
=4	=4
4a	ſtehn:
8r}	.
{8f	'Ach
8f	wein
8ff	dir
=5	=5
(4ff	nicht
8.ee)	.
16dd	die
8.dd	Aug-
16cc	-lein
=6	=6
4cc	rot,
8r}	.
{8a	ich
8g	verſpre-
8f	-che
=7	=7
4cc	dir
8.b-	ja
16g	die
4g	Treu-
=8	=8
4a	-e'.
8r}	.
==	==
!!!AGN: Ballade, Abschied, Enttaeuschung, Tod, Selbstmord
!!!ONB: ESAC (Essen Associative Code) Database: BALLADE
!!!AMT: simple triple
!!!AIN: vox
!!!EED: Helmut Schaffrath
!!!EEV: 1.0
!!!source: Deutsche Volkslieder mit ihren Melodien. Herausgegeben vom Deutschen Volksliedarchiv. Dritter Band Balladen. Berlin 1954.
!!!page: 85
!!!ENC: Anna Maria Matuszewska
!!!EEV: 2025/02/18
*-	*-
